!!!OTL: Frual vo da Au
!!!OTL-incipit: Ja grueass di God, Frual vo da Au ja lebst denn du a no, schau, schau
!!!ARE: Europa, Mitteleuropa, Deutschland, Niederbayern
!!!SCT: D0072
!!!TXL: @@BAR
!!!YEM: Copyright 1995, estate of Helmut Schaffrath.
**kern	**text
*ICvox	*
*M3/4	*
*k[]	*
*C:	*
{4g	Ja
=1	=1
4.ee/	grüaß
8ee/	di
4ee/	God,
=2	=2
4.gg/	frual
8ee/	.
8ee/	vo
8ee/	da
=3	=3
4ff/	Au,
4r	.
4r	.
=4	=4
4r	.
4r}	.
{4g	ja
=5	=5
4ff/	lebst
4ff/	denn
4gg/	du
=6	=6
4aa/	a
4gg/	no,
4ff/	schau,
=7	=7
4ee/	schau!
4r	.
4r	.
=8	=8
4r	.
4r}	.
{4g	Ja
=9	=9
4.ee/	Bruada,
8ee/	.
4ee/	mir
=10	=10
4.gg/	gehts
8ee/	net
4ee/	gar
=11	=11
4ff/	guat,
4r	.
4r	.
=12	=12
4r	.
4r}	.
{4g	wei
=13	=13
4ff/	allas
4ff/	.
4gg/	so
=14	=14
4aa/	teu-
4gg/	-er
4ff/	wern
=15	=15
4ee/	tuat!
4r}	.
{4ee/	Und
=16	=16
4.ff/	im-
8ff/	-ma
4gg/	und
=17	=17
4aa/	imma
4gg/	.
4ff/	und
=18	=18
8ee/	al-
8ee/	-la-
4ee/	-wei
4ff/	werds
=19	=19
4gg/	schlimma,
4ff/}	.
{4ee/	und
=20	=20
4.dd/	Kinda
8dd/	.
4dd/	wern
=21	=21
4ff/	al-
4ee/	-la-
4dd/	-wei
=22	=22
4ee/	mehr,
4r}	.
{4ee/	wo
=23	=23
4dd/	nahma
4ee/	.
4ff/	denn's
=24	=24
4gg/	Heiratsguat
4gg/	.
4ff/	.
=25	=25
4ee/	her?
4r}	.
==	==
!!!AGN: historisches Lied, bayrische Erbfolgekriege
!! Pentatonik (Grundton ?) , Unterstimme in Terzparallelen (ergaenzt
!!    die Skala zur Heptatonik - Ionisch) ; Grundton in der
!!    zweigetrichenen Oktave; Inzipit = Transposition zum Lied
!!!ONB: ESAC (Essen Associative Code) Database: DVA
!!!AMT: simple triple
!!!AIN: vox
!!!EED: Helmut Schaffrath
!!!EEV: 1.0
!!!source: Sammlung Oberbayrischer Volkslieder, hrsg. von Kiem Pauli München 1934
!!!page: 429
!!!ENC: Anna Maria Matuszewska
!!!EEV: 2025/02/13
*-	*-
